!!!SOCIAL_FUNCTION:	Comanche Dance Song
!!!PDT:	1936
!!!OTL: No_23_Comanche_Dance_Song.krn
!!!REG: Oklahoma and Montana
!!!LANG: Tone
!!!LING_GROUP: Algonquin
**kern
*staff1
=1-
*clefF4
*k[f#c#]
*M2/4
4r
8.A\L
16e\Jk
=2
4e\
4e\
=3
*M3/4
(16.e\LL
32A\K)
16A\JJ
16r
8e\L
8e\J
8.A\L
16A\Jk
=4
*M2/4
4A\
8.A\L
16A\Jk
=5
*M3/4
(16A\LL
16E\J)
8E\J
4r
8.E\L
16e\Jk
=6
*M2/4
4e\
4e\
=7
*M3/4
16.e\LL
32A\K
16A\JJ
16r
8e\L
8e\J
8.A\L
16A\Jk
=8
4A\
8.A\L
16A\Jk
8A\
8r
=9
*M2/4
8.A\L
16A\Jk
8.A\L
16e\Jk
=10
2e\
=11
*M3/4
(16.e\LL
32A\K)
16A\JJ
16r
8e\L
8e\J
16A\LL
32E\JJk
32r
8B\
=12
4A\
8.A\L
16A\Jk
16F#\LL
16E\
16E\JJ
16r
=13!|:
*M2/4
8G\L
8G\J
8E\L
8D\J
=14
*M3/4
8.D\L
16D\Jk
4D\
8.r
16d\
=15
8A\L
8A\J
8.A\L
16A\Jk
16F#\LL
16F#\
16E\JJ
16r
=16
*M2/4
8G\L
8G\J
8E\L
8D\J
=17
*M3/4
4D\
(4D\
8AA/)
16r
16E\
=18
*M2/4
4E\
8.E\L
16E\Jk
=19
*M3/4
16E/LL
16AA/
16AA/JJ
16r
8E\L
8E\J
8.AA/L
16AA/Jk
=20
*M2/4
4..AA/
16AA/
=21
4AA/
4AA/
=22
4r
16G\LL
16E\J
8E\J
=23:|!
4AA/
8AA/
8r
==
*-
